data/yatra-one.svg

<svg width="68.908" height="20.692" viewBox="0 0 68.908 20.692" xmlns="http://www.w3.org/2000/svg"><path transform="translate(0 13.874) scale(.014 -.014)" d="M125 638 297 367 461 666 600 637 384 244 386 -29 246 0V275L0 667Z"/><path transform="translate(8.274 13.874) scale(.014 -.014)" d="m106 351-54 91q70 18 155.5 34t107.5 15 88-65.5 89-98.5q8-12 8-80.5t-2.5-156.5-1.5-119l-124 29 1 51q-81-81-132-81-48 1-122 91t-74 129q0 31 42 57t102.5 40.5 107.5 22.5 80 11l1 27q1 48-51 52-48 3-202-43h-1l-1-1h-2l-1-1h-2l-1-1h-2l-1-1h-3l-1-1h-2l-1-1zm50-251q9-14 34-18t75.5 13.5 109.5 61.5l1 88q-264-77-220-145z"/><path transform="translate(16.058 13.874) scale(.014 -.014)" d="m40 408-30 70h82v108l123-28v-80h122l30-70h-152v-127q0-11 0-33 0-27-0.5-54t3-51 8.5-44 17-32 29-16 43.5 5.5 60.5 31.5l27-31q-58-53-97-74-30-17-82.5 5.5t-92 63-39.5 70.5v286z"/><path transform="translate(21.98 13.874) scale(.014 -.014)" d="m189 450v-74q73 115 124 115 25 0 84-25.5t99-52.5l-69-100q-62 46-107.5 50.5t-72.5-18-58-72.5v-302l-125 28v479z"/><path transform="translate(28.882 13.874) scale(.014 -.014)" d="m106 351-54 91q70 18 155.5 34t107.5 15 88-65.5 89-98.5q8-12 8-80.5t-2.5-156.5-1.5-119l-124 29 1 51q-81-81-132-81-48 1-122 91t-74 129q0 31 42 57t102.5 40.5 107.5 22.5 80 11l1 27q1 48-51 52-48 3-202-43h-1l-1-1h-2l-1-1h-2l-1-1h-2l-1-1h-3l-1-1h-2l-1-1zm50-251q9-14 34-18t75.5 13.5 109.5 61.5l1 88q-264-77-220-145z"/><path transform="translate(41.566 13.874) scale(.014 -.014)" d="m521 572q-100 66-198-7-79-60-115-173-39-126 8-217 23-46 68-73 101-61 198 14 79 61 113 175 37 126-14 216-22 40-60 65zm156-49q38-37 57-87.5t18.5-103-17-106.5-45-100.5-68.5-83-86-55.5-100-16-106 33q-8 5-28.5 16t-29 15.5-25.5 15-28.5 19-28 21-33.5 27.5-36 34q-37 35-54.5 84t-16 101 17.5 105.5 44.5 101 67.5 85 82.5 59 93.5 21.5 98-26q130-70 223-160z"/><path transform="translate(52.808 13.874) scale(.014 -.014)" d="m193 450v-41q89 83 156 79 32-2 112.5-79.5t85.5-105.5q4-26 4-332l-124 28q6 343-5 363-18 34-59.5 20.5t-86-48.5-83.5-82v-281l-130 28v479z"/><path transform="translate(61.166 13.874) scale(.014 -.014)" d="m165 199 227 155q-72 46-122.5 34t-77.5-62.5-27-126.5zm23-96q28-34 63-42t73.5 9.5 64.5 35 61 46.5l20-20q19-21 38-42l20-20q-87-64-147-85.5t-119 0.5q-86 33-162 116-45 50-52 118.5t17.5 127.5 76 100.5 112.5 41.5q40 0 118.5-51.5t130.5-100.5q-1-3-79.5-61.5t-157.5-115.5z"/></svg>

<?xml version="1.0" encoding="utf-8" ?>
<svg baseProfile="tiny" height="100%" version="1.2" width="100%" xmlns="http://www.w3.org/2000/svg" xmlns:ev="http://www.w3.org/2001/xml-events" xmlns:xlink="http://www.w3.org/1999/xlink"><defs /><g><path d="M125 638 297 367 461 666 600 637 384 244 386 -29 246 0V275L0 667Z" transform="translate(0.0, 72) scale(0.072, -0.072)" /><path d="M106 351 52 442Q122 460 207.5 476.0Q293 492 315.0 491.0Q337 490 403.0 425.5Q469 361 492 327Q500 315 500.0 246.5Q500 178 497.5 90.0Q495 2 496 -29L372 0L373 51Q292 -30 241 -30Q193 -29 119.0 61.0Q45 151 45 190Q45 221 87.0 247.0Q129 273 189.5 287.5Q250 302 297.0 310.0Q344 318 377 321L378 348Q379 396 327 400Q279 403 125 357H124L123 356H122H121L120 355H119H118L117 354H116H115L114 353H113H112H111L110 352H109H108L107 351ZM156 100Q165 86 190.0 82.0Q215 78 265.5 95.5Q316 113 375 157L376 245Q112 168 156 100Z" transform="translate(42.552, 72) scale(0.072, -0.072)" /><path d="M40 408 10 478H92V586L215 558V478H337L367 408H215V281Q215 270 215 248Q215 221 214.5 194.0Q214 167 217.5 143.0Q221 119 226.0 99.0Q231 79 243.0 67.0Q255 55 272.0 51.0Q289 47 315.5 56.5Q342 66 376 88L403 57Q345 4 306 -17Q276 -34 223.5 -11.5Q171 11 131.5 51.5Q92 92 92 122V408Z" transform="translate(82.584, 72) scale(0.072, -0.072)" /><path d="M189 450V376Q262 491 313 491Q338 491 397.0 465.5Q456 440 496 413L427 313Q365 359 319.5 363.5Q274 368 247.0 345.5Q220 323 189 273V-29L64 -1V478Z" transform="translate(113.03999999999999, 72) scale(0.072, -0.072)" /><path d="M106 351 52 442Q122 460 207.5 476.0Q293 492 315.0 491.0Q337 490 403.0 425.5Q469 361 492 327Q500 315 500.0 246.5Q500 178 497.5 90.0Q495 2 496 -29L372 0L373 51Q292 -30 241 -30Q193 -29 119.0 61.0Q45 151 45 190Q45 221 87.0 247.0Q129 273 189.5 287.5Q250 302 297.0 310.0Q344 318 377 321L378 348Q379 396 327 400Q279 403 125 357H124L123 356H122H121L120 355H119H118L117 354H116H115L114 353H113H112H111L110 352H109H108L107 351ZM156 100Q165 86 190.0 82.0Q215 78 265.5 95.5Q316 113 375 157L376 245Q112 168 156 100Z" transform="translate(148.536, 72) scale(0.072, -0.072)" /><path d="M521 572Q421 638 323 565Q244 505 208 392Q169 266 216 175Q239 129 284 102Q385 41 482 116Q561 177 595 291Q632 417 581 507Q559 547 521 572ZM677 523Q715 486 734.0 435.5Q753 385 752.5 332.5Q752 280 735.5 226.0Q719 172 690.5 125.5Q662 79 622.0 42.5Q582 6 536.0 -13.0Q490 -32 436.0 -29.0Q382 -26 330 4Q322 9 301.5 20.0Q281 31 272.5 35.5Q264 40 247.0 50.5Q230 61 218.5 69.5Q207 78 190.5 90.5Q174 103 157.0 118.0Q140 133 121 152Q84 187 66.5 236.0Q49 285 50.5 337.0Q52 389 68.0 442.5Q84 496 112.5 543.5Q141 591 180.0 628.5Q219 666 262.5 687.5Q306 709 356.0 709.0Q406 709 454 683Q584 613 677 523Z" transform="translate(213.76799999999997, 72) scale(0.072, -0.072)" /><path d="M193 450V409Q282 492 349 488Q381 486 461.5 408.5Q542 331 547 303Q551 277 551 -29L427 -1Q433 342 422 362Q404 396 362.5 382.5Q321 369 276.5 334.0Q232 299 193 252V-29L63 -1V478Z" transform="translate(271.58399999999995, 72) scale(0.072, -0.072)" /><path d="M165 199 392 354Q320 400 269.5 388.0Q219 376 192.0 325.5Q165 275 165 199ZM188 103Q216 69 251.0 61.0Q286 53 324.5 70.5Q363 88 389.0 105.5Q415 123 450 152L470 132Q489 111 508 90L528 70Q441 6 381.0 -15.5Q321 -37 262 -15Q176 18 100 101Q55 151 48.0 219.5Q41 288 65.5 347.0Q90 406 141.5 447.5Q193 489 254 489Q294 489 372.5 437.5Q451 386 503 337Q502 334 423.5 275.5Q345 217 266 160Z" transform="translate(314.5679999999999, 72) scale(0.072, -0.072)" /></g></svg>
